!!!!SEGMENT: pl-kk--kk-i-161--003_anonim--optimam-partem-elegit-maria.krn
!!!cenid: 17xx:2603
!!!COM: Anonim
!!!COM-rismID: pe30004985
!!!CDT:
!!!CNT:
!!!OTL: Optimam partem elegit Maria
!!!PDT:
!!!AGN: Sacred
!!!YEC: Copyright 2022 Narodowy Instytut Fryderyka Chopina (https://polishscores.org)
!!!YEM: License CC-BY-4.0 (https://creativecommons.org/licenses/by/4.0)
!!!SMS-siglum: PL-Kk
!!!SMS-shelfmark: Kk.I.161
!!!SMS-variant:
!!!SMS-altvar:
!!!SMS-shelfwork: 003 W
!!!NIFC-rismSourceID: 1001150820
!!!NIFC-rismChildID: 1001150828
!!!NIFC-islandoraID: pl-kk:3762
!!!URL-pdf-islandora: https://repozytorium.nifc.pl/islandora/object/pl-kk:3762/datastream/PDF/view
!!!URL-scan: https://polish.musicsources.pl/pl/lokalizacje/galeria/rekopisy/5789/1 @EN{Scan on Polish Music Sources Website} @PL{Skany w portalu Dziedzictwo Muzyki Polskiej w otwartym dostępie}
!!!IIIF:
!!!ONB-nifc: UWAGA: Tylko partia Bassus na stronie dodanej później
!!!AIN: 1 bass
!!!key: F:lyd
**kern	**text
*ICvox	*
*Ibass	*
*I"Baſso.	*
*I'B	*
*clefF4	*
*k[]	*
*F:lyd	*
*M4/2	*
*met(C|)	*
=1-	=1-
*2\right	*
1F	O-
2F\	-pti-
2F\	-mam
=2-	=2-
(>2BB/	O-
2AA/)	-pti-
2BB/	-ma(m)
!LO:TX:t=P:problem:kreska pseudotaktowa	!
2BB/	.
=3-	=3-
2C/	par-
[2D/	-tem
2D/]	.
2BB/	e-
=4-	=4-
1C	-le-
!LO:TX:t=P:problem:kreska pseudotaktowa	!
1FF	-git
!LO:LB:g=original	!
=5-	=5-
2r	.
2.F\	o-
4F\	-pti-
2F\	-ma(m)
=6-	=6-
1D	par-
2BB/	-tem
2BB/	e-
=7-	=7-
2GG/	-le-
!LO:TX:t=P:problem:kreska pseudotaktowa	!
2GG/	-git
1D	si-
=8-	=8-
2GG/	-bi
2C/	Ma-
2AA/	.
2BB/	-ri-
=9-	=9-
4C/	.
4BB/	.
2GG/	.
!LO:TX:t=P:problem:kreska pseudotaktowa	!
1FF	-a
=10-	=10-
1C	qvae
1F	n(on)
=11-	=11-
1F	Au-
2F\	-fe-
2BB/	-re-
=12-	=12-
2BB/	-tur
!LO:TX:t=P:problem:kreska pseudotaktowa	!
2BB/	.
!LO:LB:g=original	!
=-	=-
1BB	n(on)
=13-	=13-
2BB/	au-
2F\	-fe-
2E\	-re-
2F\	-t(ur)
=14-	=14-
!LO:TX:t=P:problem:kreska pseudotaktowa	!
1C	n(on)
2GG/	au-
2GG/	-fe-
=15-	=15-
1D	-re-
2GG/	-tur,
!LO:TX:t=P:problem:kreska pseudotaktowa	!
2C/	n(on)
=16-	=16-
2.BB/	au-
4BB/	-fe-
2BB/	-re-
!LO:TX:t=P:problem:kreska pseudotaktowa	!
[2F\	.
=17-	=17-
2F\]	-tur,
2F\	n(on)
2F\	au-
2C/	-fe-
=18-	=18-
2BB#/	-re-
2C/	.
!LO:TX:t=P:problem:kreska pseudotaktowa	!
1GG	-tur
=19-	=19-
1C	in
!LO:LB:g=original	!
=-	=-
1C	ae-
=20-	=20-
1.FF	-ter-
2FF/	-num
=21-	=21-
2C/	in
2C/	ae-
1C	-ter-
=22-	=22-
00F;	-num
=23||-	=23||-
*M3/2	*
2F\	n(on)
2F\	au-
!LO:TX:t=P:problem:kreska pseudotaktowa	!
2F\	-fe-
=24-	=24-
1BBny	-re-
!LO:TX:t=P:problem:kreska pseudotaktowa	!
2BB/	-tur
=25-	=25-
2GG/	ab
2GG/	E-
!LO:TX:t=P:problem:kreska pseudotaktowa	!
2GG/	-a
=26-	=26-
1C	in
!LO:TX:t=P:problem:kreska pseudotaktowa	!
2C/	ae-
=27-	=27-
!LO:TX:t=P:problem:kreska pseudotaktowa	!
1.BB	-ter-
=28-	=28-
00.FF;	-num
=-	=-
*-	*-
!!!RDF**kern: i = editorial accidental
!!!RDF**kern: > = above
!!!RDF**kern: < = below
!!!RDF**kern: N = linked
!!!RDF**kern: | = vertical stroke
!!!ENC: Andrzej Gręziak
!!!EED: Katarzyna Serwa
!!!END: 2024-04-11
!!!EEV: 2024-05-08
